X:1
T:Miss Dumbreck
C:Gow's Sixth Coll.
R:reel
B:RSCDS 25-11
Z:Anselm Lingnau <anselm@strathspey.org>
M:C
L:1/8
K:A
e |\
"A"dcBA A2ce | "D"fe"A"ce "D"fg"A"ae |\
"F#m"dcBA "A"A2ec | "E"BGEG "E7"Bcde |
"A"dcBA A2ce | "D"fe"A"ce "D"fg"A"ae |\
"D"agae "Bm"dcBA | "E"GEBG dBGB ||
"A"A2ce aece | aece aecA |\
"E"E2GB ef^df | "B7"ef^df "D7"e=dcB |
"A"A2ce aece | aece aecA |\
"D"Fd"A"Ec "Bm"DB"A"CA |[1 "E7"EFGA Bcde :|\
[2 "E7"EFGB "A"A2A |]
